public/home/dao-it/icons/rari.svg

<svg width="73" height="73" viewBox="0 0 73 73" fill="none" xmlns="http://www.w3.org/2000/svg">
<g clip-path="url(#clip0_2623_179)">
<path d="M36.4568 68.466C53.8041 68.466 67.8668 54.4033 67.8668 37.0561C67.8668 19.7088 53.8041 5.64612 36.4568 5.64612C19.1096 5.64612 5.04688 19.7088 5.04688 37.0561C5.04688 54.4033 19.1096 68.466 36.4568 68.466Z" fill="#242424"/>
<path d="M42.1031 32.0516H30.54V34.0762H42.1031C42.6592 34.0762 43.1154 33.6199 43.1154 33.0639C43.1154 32.5078 42.6592 32.0516 42.1031 32.0516Z" fill="#DFE225"/>
<path d="M36.5 0C16.3395 0 0 16.3395 0 36.5C0 56.6605 16.3395 73 36.5 73C56.6605 73 73 56.6605 73 36.5C73 16.3395 56.6605 0 36.5 0ZM51.8414 41.148V47.5498H43.0158V42.1176C43.0158 42.1176 43.3723 39.8221 40.1215 39.8221H30.5687V47.5498H21.1443V25.4359H45.7961C45.7961 25.4359 51.8414 26.1631 51.8414 30.6258C51.8414 35.0885 48.9471 36.4287 48.9471 36.4287C48.9471 36.4287 51.8414 38.2537 51.8414 41.148Z" fill="#DFE225"/>
</g>
<defs>
<clipPath id="clip0_2623_179">
<rect width="73" height="73" fill="white"/>
</clipPath>
</defs>
</svg>

<svg viewBox="0 0 73 73" fill="none" xmlns="http://www.w3.org/2000/svg"><g clip-path="url(#a)"><path d="M36.457 68.466c17.347 0 31.41-14.063 31.41-31.41s-14.063-31.41-31.41-31.41-31.41 14.063-31.41 31.41 14.063 31.41 31.41 31.41" fill="#242424"/><path d="M42.103 32.052H30.54v2.024h11.563c.556 0 1.012-.456 1.012-1.012s-.456-1.012-1.012-1.012" fill="#DFE225"/><path d="M36.5 0C16.34 0 0 16.34 0 36.5S16.34 73 36.5 73 73 56.66 73 36.5 56.66 0 36.5 0m15.341 41.148v6.402h-8.825v-5.432s.356-2.296-2.895-2.296H30.57v7.728h-9.425V25.436h24.652s6.045.727 6.045 5.19-2.894 5.803-2.894 5.803 2.894 1.825 2.894 4.719" fill="#DFE225"/></g><defs><clipPath id="a"><path fill="#fff" d="M0 0h73v73H0z"/></clipPath></defs></svg>
